contents/blog/joining-lfai/image.svg

<svg id="Layer_1" data-name="Layer 1" xmlns="http://www.w3.org/2000/svg" viewBox="0 0 659 446.97"><defs><style>.cls-1{fill:#060f42;}.cls-2{fill:#2b53da;}.cls-10,.cls-11,.cls-12,.cls-13,.cls-14,.cls-15,.cls-16,.cls-17,.cls-18,.cls-19,.cls-2,.cls-20,.cls-21,.cls-22,.cls-23,.cls-24,.cls-25,.cls-26,.cls-27,.cls-28,.cls-29,.cls-3,.cls-30,.cls-4,.cls-5,.cls-6,.cls-7,.cls-8,.cls-9{fill-opacity:0.5;}.cls-3{fill:#5f85ed;}.cls-4{fill:#091978;}.cls-5{fill:#00001b;}.cls-6{fill:#497bf5;}.cls-7{fill:#041259;}.cls-8{fill:#071565;}.cls-9{fill:#14288e;}.cls-10{fill:#3553a5;}.cls-11{fill:#00001e;}.cls-12{fill:#5261a6;}.cls-13{fill:#ffd6e5;}.cls-14{fill:#000049;}.cls-15{fill:#09135c;}.cls-16{fill:#00054b;}.cls-17{fill:#1638b1;}.cls-18{fill:#0b1f6c;}.cls-19{fill:#0a164f;}.cls-20{fill:#000340;}.cls-21{fill:#1f48b7;}.cls-22{fill:#031782;}.cls-23{fill:#1634b3;}.cls-24{fill:#051460;}.cls-25{fill:#3f8fe6;}.cls-26{fill:#3074eb;}.cls-27{fill:#6761bb;}.cls-28{fill:#050c40;}.cls-29{fill:#23428b;}.cls-30{fill:#00002a;}</style></defs><rect class="cls-1" width="659" height="446.97"/><path class="cls-2" d="M507.43,39.54,70.84,121.91,123.56,402l436.59-82.38Z"/><path class="cls-3" d="M318,84,247.13,276.78,360.8,318l70.85-192.76Z"/><path class="cls-4" d="M166.4,26.36-169.69,79.08l61,377.28,334.44-52.72Z"/><path class="cls-5" d="M332.8,67.55l286.66,80.72,97.2-341L430-273.48Z"/><path class="cls-6" d="M601.34,181.22l143.33,97.21,47.78-74.14-143.34-97.2Z"/><path class="cls-7" d="M550.27,138.39l-110.39,290,72.49,26.36,110.38-290Z"/><path class="cls-8" d="M56,89-199.35,308.08,145,708.42,400.34,489.31Z"/><path class="cls-9" d="M6.59,115.32l324.56,100.5,21.42-74.14L28,41.19Z"/><path class="cls-10" d="M285,362.45l77.43,42.83,32.95-62.6L318,299.84Z"/><path class="cls-11" d="M467.89,97.2,739.73,112l9.88-210.88L477.78-113.68Z"/><path class="cls-12" d="M100.5,57.66,23.07,54.37l-3.3,64.25,77.43,3.29Z"/><path class="cls-13" d="M304.79,212.53l31.3,54.36,44.48-26.36-31.3-54.36Z"/><path class="cls-14" d="M164.75,23.06,84,65.9l57.67,108.73,80.72-42.83Z"/><path class="cls-15" d="M42.84,237.24,0,332.79,571.68,584.86l42.84-95.55Z"/><path class="cls-16" d="M182.87,23.06,332.8,121.91,420.11-8.24,270.19-107.09Z"/><path class="cls-17" d="M220.77,125.21l-36.25,21.42L334.44,390.46,370.69,369Z"/><path class="cls-18" d="M444.83,199.35l84,75.78L635.93,156.51l-84-75.78Z"/><path class="cls-19" d="M626.05,199.35,411.88,393.75,665.59,668.88l214.17-194.4Z"/><path class="cls-20" d="M375.63,97.2l156.51,28,14.83-89-156.51-28Z"/><path class="cls-21" d="M382.22,286.66l61,6.59L463,110.38l-61-6.59Z"/><path class="cls-22" d="M192.76,115.32,44.48,128.5,62.61,316.32l148.27-13.18Z"/><path class="cls-23" d="M309.73,113.68l-151.57,84L207.59,285l151.57-84Z"/><path class="cls-24" d="M568.39,207.58l-62.61,41.19,67.55,100.5,62.6-41.19Z"/><path class="cls-25" d="M224.06,75.78l-8.24,23.07L395.4,158.16l8.24-23.07Z"/><path class="cls-26" d="M365.75,255.36v52.72l24.71-1.65V253.71Z"/><path class="cls-27" d="M286.67,202.64,266.9,220.76l59.31,57.67L346,260.3Z"/><path class="cls-28" d="M612.87,390.46,100.5,408.58l4.94,131.8,512.37-18.12Z"/><path class="cls-29" d="M454.71,112v31.3l191.11-4.94v-31.3Z"/><path class="cls-30" d="M13.18,1.65,169.69,69.19l77.44-176.28L90.61-174.63Z"/></svg>

<?xml version="1.0" encoding="UTF-8" standalone="no"?>
<!DOCTYPE svg PUBLIC "-//W3C//DTD SVG 1.1//EN" "http://www.w3.org/Graphics/SVG/1.1/DTD/svg11.dtd">
<!-- Created with Vectornator (http://vectornator.io/) -->
<svg height="100%" stroke-miterlimit="10" style="fill-rule:nonzero;clip-rule:evenodd;stroke-linecap:round;stroke-linejoin:round;" version="1.1" viewBox="0 0 659 446.97" width="100%" xml:space="preserve" xmlns="http://www.w3.org/2000/svg" xmlns:vectornator="http://vectornator.io" xmlns:xlink="http://www.w3.org/1999/xlink">
<defs/>
<clipPath id="ArtboardFrame">
<rect height="446.97" width="659" x="0" y="0"/>
</clipPath>
<g clip-path="url(#ArtboardFrame)" id="Untitled" vectornator:layerName="Untitled">
<path d="M0 0L659 0L659 0L659 446.97L659 446.97L0 446.97L0 446.97L0 0L0 0Z" fill="#060f42" fill-rule="nonzero" opacity="1" stroke="none"/>
<path d="M507.43 39.54L70.84 121.91L123.56 402L560.15 319.62L507.43 39.54Z" fill="#2b53da" fill-rule="nonzero" opacity="1" stroke="none"/>
<path d="M318 84L247.13 276.78L360.8 318L431.65 125.24L318 84Z" fill="#5f85ed" fill-rule="nonzero" opacity="1" stroke="none"/>
<path d="M166.4 26.36L-169.69 79.08L-108.69 456.36L225.75 403.64L166.4 26.36Z" fill="#091978" fill-rule="nonzero" opacity="1" stroke="none"/>
<path d="M332.8 67.55L619.46 148.27L716.66-192.73L430-273.48L332.8 67.55Z" fill="#00001b" fill-rule="nonzero" opacity="1" stroke="none"/>
<path d="M601.34 181.22L744.67 278.43L792.45 204.29L649.11 107.09L601.34 181.22Z" fill="#497bf5" fill-rule="nonzero" opacity="1" stroke="none"/>
<path d="M550.27 138.39L439.88 428.39L512.37 454.75L622.75 164.75L550.27 138.39Z" fill="#041259" fill-rule="nonzero" opacity="1" stroke="none"/>
<path d="M56 89L-199.35 308.08L145 708.42L400.34 489.31L56 89Z" fill="#071565" fill-rule="nonzero" opacity="1" stroke="none"/>
<path d="M6.59 115.32L331.15 215.82L352.57 141.68L28 41.19L6.59 115.32Z" fill="#14288e" fill-rule="nonzero" opacity="1" stroke="none"/>
<path d="M285 362.45L362.43 405.28L395.38 342.68L318 299.84L285 362.45Z" fill="#3553a5" fill-rule="nonzero" opacity="1" stroke="none"/>
<path d="M467.89 97.2L739.73 112L749.61-98.88L477.78-113.68L467.89 97.2Z" fill="#00001e" fill-rule="nonzero" opacity="1" stroke="none"/>
<path d="M100.5 57.66L23.07 54.37L19.77 118.62L97.2 121.91L100.5 57.66Z" fill="#5261a6" fill-rule="nonzero" opacity="1" stroke="none"/>
<path d="M304.79 212.53L336.09 266.89L380.57 240.53L349.27 186.17L304.79 212.53Z" fill="#ffd6e5" fill-rule="nonzero" opacity="1" stroke="none"/>
<path d="M164.75 23.06L84 65.9L141.67 174.63L222.39 131.8L164.75 23.06Z" fill="#000049" fill-rule="nonzero" opacity="1" stroke="none"/>
<path d="M42.84 237.24L0 332.79L571.68 584.86L614.52 489.31L42.84 237.24Z" fill="#09135c" fill-rule="nonzero" opacity="1" stroke="none"/>
<path d="M182.87 23.06L332.8 121.91L420.11-8.24L270.19-107.09L182.87 23.06Z" fill="#00054b" fill-rule="nonzero" opacity="1" stroke="none"/>
<path d="M220.77 125.21L184.52 146.63L334.44 390.46L370.69 369L220.77 125.21Z" fill="#1638b1" fill-rule="nonzero" opacity="1" stroke="none"/>
<path d="M444.83 199.35L528.83 275.13L635.93 156.51L551.93 80.73L444.83 199.35Z" fill="#0b1f6c" fill-rule="nonzero" opacity="1" stroke="none"/>
<path d="M626.05 199.35L411.88 393.75L665.59 668.88L879.76 474.48L626.05 199.35Z" fill="#0a164f" fill-rule="nonzero" opacity="1" stroke="none"/>
<path d="M375.63 97.2L532.14 125.2L546.97 36.2L390.46 8.2L375.63 97.2Z" fill="#000340" fill-rule="nonzero" opacity="1" stroke="none"/>
<path d="M382.22 286.66L443.22 293.25L463 110.38L402 103.79L382.22 286.66Z" fill="#1f48b7" fill-rule="nonzero" opacity="1" stroke="none"/>
<path d="M192.76 115.32L44.48 128.5L62.61 316.32L210.88 303.14L192.76 115.32Z" fill="#031782" fill-rule="nonzero" opacity="1" stroke="none"/>
<path d="M309.73 113.68L158.16 197.68L207.59 285L359.16 201L309.73 113.68Z" fill="#1634b3" fill-rule="nonzero" opacity="1" stroke="none"/>
<path d="M568.39 207.58L505.78 248.77L573.33 349.27L635.93 308.08L568.39 207.58Z" fill="#051460" fill-rule="nonzero" opacity="1" stroke="none"/>
<path d="M224.06 75.78L215.82 98.85L395.4 158.16L403.64 135.09L224.06 75.78Z" fill="#3f8fe6" fill-rule="nonzero" opacity="1" stroke="none"/>
<path d="M365.75 255.36L365.75 308.08L390.46 306.43L390.46 253.71L365.75 255.36Z" fill="#3074eb" fill-rule="nonzero" opacity="1" stroke="none"/>
<path d="M286.67 202.64L266.9 220.76L326.21 278.43L346 260.3L286.67 202.64Z" fill="#6761bb" fill-rule="nonzero" opacity="1" stroke="none"/>
<path d="M612.87 390.46L100.5 408.58L105.44 540.38L617.81 522.26L612.87 390.46Z" fill="#050c40" fill-rule="nonzero" opacity="1" stroke="none"/>
<path d="M454.71 112L454.71 143.3L645.82 138.36L645.82 107.06L454.71 112Z" fill="#23428b" fill-rule="nonzero" opacity="1" stroke="none"/>
<path d="M13.18 1.65L169.69 69.19L247.13-107.09L90.61-174.63L13.18 1.65Z" fill="#00002a" fill-rule="nonzero" opacity="1" stroke="none"/>
</g>
</svg>
